media/costumes/W-glow.svg

<svg width="91" height="83" xmlns="http://www.w3.org/2000/svg"><path fill="#0CC" d="M90.87 15.31c0 6.5-3.87 11.71-9.88 13.28l-.58.15c-.2 1.6-.45 3.34-.74 5.24l-1.47 10.4c-.51 4.08-1.83 11.91-4.04 23.94-.01.04-.02.07-.02.11-.57 2.93-.85 4.03-1.28 5.13-.02.05-.04.09-.06.13-1.46 3.55-4.14 6.33-7.74 8.04-1.48.69-3.09 1.05-4.71 1.05-.31 0-.61-.01-.92-.03-.72-.06-1.42-.13-2.09-.19-.13-.01-.26-.02-.39-.04-4.32-.54-7.02-2.49-8.58-4.17-.44-.47-.85-.96-1.23-1.49-.89.79-1.78 1.38-2.6 1.83-.95.53-1.98.91-3.05 1.13-1.15.24-2.81.58-4.99 1-1.99.39-4.06.22-5.96-.49-1.97-.74-3.8-1.97-5.59-3.76a11 11 0 0 1-2.73-4.52c-1.89-6.1-4.33-15.06-7.46-27.38-.02-.11-.05-.21-.07-.32-.33-1.47-.84-3.65-1.53-6.52-.47-1.45-1.06-3.29-1.76-5.53-3.61-.88-6.1-2.76-7.7-4.42C2.18 26.31.37 23.63.04 19.55c-.03-.29-.04-.59-.04-.89 0-3.37 1.1-6.44 3.17-8.9 2.16-2.62 4.51-4.28 7.19-5.07 2.16-.69 4.66-1.08 7.61-1.16 1.53-.04 3.06-.03 4.55-.07 1.33-.17 3.09-.39 5.3-.65.31-.04.63-.06.95-.07.42-.02.83-.02 1.21-.02 2.64 0 4.76.29 6.66.93.06.01.11.03.17.05.97.34 1.88.78 2.72 1.29.9-.34 1.84-.6 2.83-.78.37-.06.74-.11 1.12-.13 1.77-.13 3.54.03 5.27.46C51.44 1.64 55.28 0 59.64 0c1.21 0 2.61.16 4.69.52.1.01.2.03.29.05h.01c1.32-.09 2.81-.03 5.06.17 1.6.12 3.22.23 4.86.34 3.12.19 5.79.73 8.08 1.64.2.08.39.16.58.25 4.8 2.24 7.66 6.86 7.66 12.34z"/><path fill="#FFF" d="M78.554 12.938c.88.411 1.319 1.203 1.319 2.375 0 1.467-.558 2.347-1.671 2.639-1.115.294-2.111.411-2.991.353-.118 0-.879-.205-2.287-.616-1.114-.293-2.053-.409-2.814-.352-.059.059-.088 1.643-.088 4.75-.176 2.639-.587 6.069-1.231 10.291l-1.495 10.556c-.47 3.812-1.79 11.61-3.958 23.397-.353 1.816-.587 2.872-.704 3.167-.411.996-1.174 1.759-2.287 2.286-.703-.059-1.378-.118-2.022-.176-.939-.118-1.584-.382-1.936-.791-.646-.646-1.114-1.73-1.407-3.255-.587-2.404-.88-3.636-.88-3.694-.47-1.466-1.642-5.718-3.519-12.755-.997-3.87-2.521-9.764-4.573-17.68-.411 2.111-.822 4.809-1.231 8.092a269.23 269.23 0 0 1-1.584 12.667c-.294 2.521-.791 6.04-1.495 10.556-.47 2.229-1.29 3.664-2.463 4.31-1.114.233-2.727.557-4.838.968-.47-.176-1.026-.587-1.671-1.231-1.818-5.863-4.252-14.807-7.301-26.828-.352-1.583-.91-3.958-1.671-7.125-.763-2.345-1.878-5.863-3.343-10.556-.118-.703-.47-1.671-1.056-2.902-1.759.294-2.933.439-3.519.439-1.818 0-3.226-.527-4.222-1.583-.353-.352-.559-.88-.616-1.583 0-.762.205-1.377.616-1.848.761-.937 1.407-1.465 1.935-1.583 1.173-.409 2.756-.645 4.75-.704 1.7 0 3.4-.028 5.102-.088 1.349-.176 3.255-.409 5.718-.703 1.817-.058 3.167.059 4.046.352 1.173.411 1.76 1.262 1.76 2.551 0 .587-.118 1.027-.353 1.319-.703.763-1.701 1.231-2.99 1.407a55.184 55.184 0 0 1-3.255.265 22.52 22.52 0 0 0-1.583.352c-.47.294-.675.938-.615 1.935.058.998.585 2.903 1.583 5.718.469 1.35 1.788 6.832 3.958 16.449.938 3.226 2.345 8.18 4.223 14.865-.06 0 .028.118.264.352.82-3.107 1.583-7.271 2.287-12.49l1.407-10.731c.116-1.113.293-2.756.527-4.926.233-1.289.528-3.312.88-6.069 0-1.816.205-4.515.615-8.093.234-1.055 1.025-1.699 2.375-1.935a6.002 6.002 0 0 1 2.463.352c1.056.411 1.584.998 1.584 1.76 0 2.17.352 4.691 1.055 7.564.586 1.701 1.29 4.105 2.111 7.213.176.938 2.375 9.529 6.597 25.772.117.352.293.675.528.967.82-3.048 1.407-5.658 1.759-7.828 1.056-6.215 2.433-15.861 4.135-28.939.058-.116.028-1.699-.089-4.749a.856.856 0 0 0-.439-.353 704.293 704.293 0 0 0-4.838-1.056c-2.111-.468-3.166-1.143-3.166-2.022 0-.233.088-.498.264-.792.585-1.289 1.729-1.935 3.431-1.935.527 0 1.465.118 2.814.352 1.172.235 2.052.308 2.639.22.586-.088 1.817-.044 3.694.132 1.641.118 3.312.235 5.014.352 1.991.115 3.574.407 4.748.876z"/></svg>

<svg version="1.1" width="91" height="83" xmlns="http://www.w3.org/2000/svg" xmlns:xlink="http://www.w3.org/1999/xlink">
  <!-- Exported by Scratch - http://scratch.mit.edu/ -->
  <g id="ID0.4024006868712604">
    <g id="ID0.7080843634903431">
      <g id="ID0.19893662631511688">
        <path id="ID0.0032104086130857468" fill="#00CCCC" d="M 90.870 15.310 C 90.870 21.810 87 27.020 80.990 28.590 C 80.800 28.640 80.600 28.690 80.410 28.740 C 80.210 30.340 79.960 32.080 79.670 33.980 L 78.200 44.380 C 77.690 48.460 76.370 56.290 74.160 68.320 C 74.150 68.360 74.140 68.390 74.140 68.430 C 73.570 71.360 73.290 72.460 72.860 73.560 C 72.840 73.610 72.820 73.650 72.800 73.690 C 71.340 77.240 68.660 80.020 65.060 81.730 C 63.580 82.420 61.970 82.780 60.350 82.780 C 60.040 82.780 59.740 82.770 59.430 82.750 C 58.710 82.690 58.010 82.620 57.340 82.560 C 57.210 82.550 57.080 82.540 56.950 82.520 C 52.630 81.980 49.930 80.030 48.370 78.350 C 47.930 77.880 47.520 77.390 47.140 76.860 C 46.250 77.650 45.360 78.240 44.540 78.690 C 43.590 79.220 42.560 79.600 41.490 79.820 C 40.340 80.060 38.680 80.400 36.500 80.820 C 34.510 81.210 32.440 81.040 30.540 80.330 C 28.570 79.590 26.740 78.360 24.950 76.570 C 23.690 75.310 22.750 73.760 22.220 72.050 C 20.330 65.950 17.890 56.990 14.760 44.670 C 14.740 44.560 14.710 44.460 14.690 44.350 C 14.360 42.880 13.850 40.700 13.160 37.830 C 12.690 36.380 12.100 34.540 11.400 32.300 C 7.790 31.420 5.300 29.540 3.700 27.880 C 2.180 26.310 0.370 23.630 0.040 19.550 C 0.010 19.260 0 18.960 0 18.660 C 0 15.290 1.100 12.220 3.170 9.760 C 5.330 7.140 7.680 5.480 10.360 4.690 C 12.520 4 15.020 3.610 17.970 3.530 C 19.500 3.490 21.030 3.500 22.520 3.460 C 23.850 3.290 25.610 3.070 27.820 2.810 C 28.130 2.770 28.450 2.750 28.770 2.740 C 29.190 2.720 29.600 2.720 29.980 2.720 C 32.620 2.720 34.740 3.010 36.640 3.650 C 36.700 3.660 36.750 3.680 36.810 3.700 C 37.780 4.040 38.690 4.480 39.530 4.990 C 40.430 4.650 41.370 4.390 42.360 4.210 C 42.730 4.150 43.100 4.100 43.480 4.080 C 45.250 3.950 47.020 4.110 48.750 4.540 C 51.440 1.640 55.280 0 59.640 0 C 60.850 0 62.250 0.160 64.330 0.520 C 64.430 0.530 64.530 0.550 64.620 0.570 C 64.630 0.570 64.630 0.570 64.630 0.570 C 65.950 0.480 67.440 0.540 69.690 0.740 C 71.290 0.860 72.910 0.970 74.550 1.080 C 77.670 1.270 80.340 1.810 82.630 2.720 C 82.830 2.800 83.020 2.880 83.210 2.970 C 88.010 5.210 90.870 9.830 90.870 15.310 Z "/>
      </g>
    </g>
    <g id="ID0.6096688969992101">
      <path id="ID0.46376190800219774" fill="#FFFFFF" d="M 78.554 12.938 C 79.434 13.349 79.873 14.141 79.873 15.313 C 79.873 16.780 79.315 17.660 78.202 17.952 C 77.087 18.246 76.091 18.363 75.211 18.305 C 75.093 18.305 74.332 18.100 72.924 17.689 C 71.810 17.396 70.871 17.280 70.110 17.337 C 70.051 17.396 70.022 18.980 70.022 22.087 C 69.846 24.726 69.435 28.156 68.791 32.378 C 67.911 38.595 67.412 42.112 67.296 42.934 C 66.826 46.746 65.506 54.544 63.338 66.331 C 62.985 68.147 62.751 69.203 62.634 69.498 C 62.223 70.494 61.460 71.257 60.347 71.784 C 59.644 71.725 58.969 71.666 58.325 71.608 C 57.386 71.490 56.741 71.226 56.389 70.817 C 55.743 70.171 55.275 69.087 54.982 67.562 C 54.395 65.158 54.102 63.926 54.102 63.868 C 53.632 62.402 52.460 58.150 50.583 51.113 C 49.586 47.243 48.062 41.349 46.010 33.433 C 45.599 35.544 45.188 38.242 44.779 41.525 C 44.308 46.099 43.781 50.322 43.195 54.192 C 42.901 56.713 42.404 60.232 41.700 64.748 C 41.230 66.977 40.410 68.412 39.237 69.058 C 38.123 69.291 36.510 69.615 34.399 70.026 C 33.929 69.850 33.373 69.439 32.728 68.795 C 30.910 62.932 28.476 53.988 25.427 41.967 C 25.075 40.384 24.517 38.009 23.756 34.842 C 22.993 32.497 21.878 28.979 20.413 24.286 C 20.295 23.583 19.943 22.615 19.357 21.384 C 17.598 21.678 16.424 21.823 15.838 21.823 C 14.020 21.823 12.612 21.296 11.616 20.240 C 11.263 19.888 11.057 19.360 11 18.657 C 11 17.895 11.205 17.280 11.616 16.809 C 12.377 15.872 13.023 15.344 13.551 15.226 C 14.724 14.817 16.307 14.581 18.301 14.522 C 20.001 14.522 21.701 14.494 23.403 14.434 C 24.752 14.258 26.658 14.025 29.121 13.731 C 30.938 13.673 32.288 13.790 33.167 14.083 C 34.340 14.494 34.927 15.345 34.927 16.634 C 34.927 17.221 34.809 17.661 34.574 17.953 C 33.871 18.716 32.873 19.184 31.584 19.360 C 30.528 19.478 29.442 19.567 28.329 19.625 C 27.977 19.684 27.450 19.801 26.746 19.977 C 26.276 20.271 26.071 20.915 26.131 21.912 C 26.189 22.910 26.716 24.815 27.714 27.630 C 28.183 28.980 29.502 34.462 31.672 44.079 C 32.610 47.305 34.017 52.259 35.895 58.944 C 35.835 58.944 35.923 59.062 36.159 59.296 C 36.979 56.189 37.742 52.025 38.446 46.806 C 38.915 43.230 39.383 39.652 39.853 36.075 C 39.969 34.962 40.146 33.319 40.380 31.149 C 40.613 29.860 40.908 27.837 41.260 25.080 C 41.260 23.264 41.465 20.565 41.875 16.987 C 42.109 15.932 42.900 15.288 44.250 15.052 C 45.071 14.994 45.892 15.111 46.713 15.404 C 47.769 15.815 48.297 16.402 48.297 17.164 C 48.297 19.334 48.649 21.855 49.352 24.728 C 49.938 26.429 50.642 28.833 51.463 31.941 C 51.639 32.879 53.838 41.470 58.060 57.713 C 58.177 58.065 58.353 58.388 58.588 58.680 C 59.408 55.632 59.995 53.022 60.347 50.852 C 61.403 44.637 62.780 34.991 64.482 21.913 C 64.540 21.797 64.510 20.214 64.393 17.164 C 64.275 16.987 64.129 16.871 63.954 16.811 C 62.371 16.459 60.758 16.108 59.116 15.755 C 57.005 15.287 55.950 14.612 55.950 13.733 C 55.950 13.500 56.038 13.235 56.214 12.941 C 56.799 11.652 57.943 11.006 59.645 11.006 C 60.172 11.006 61.110 11.124 62.459 11.358 C 63.631 11.593 64.511 11.666 65.098 11.578 C 65.684 11.490 66.915 11.534 68.792 11.710 C 70.433 11.828 72.104 11.945 73.806 12.062 C 75.797 12.177 77.380 12.469 78.554 12.938 Z "/>
    </g>
  </g>
</svg>
